src/actions/symbolic/path-exclusion-symbolic.svg

<svg width="16" height="16" version="1.1" xmlns="http://www.w3.org/2000/svg">
 <path d="m1 5c-0.554 0-1 0.446-1 1v9c0 0.554 0.446 1 1 1h9c0.554 0 1-0.446 1-1v-9c0-0.554-0.446-1-1-1zm0.5 1h8c0.277 0 0.5 0.223 0.5 0.5v8c0 0.277-0.223 0.5-0.5 0.5h-8c-0.277 0-0.5-0.223-0.5-0.5v-8c0-0.277 0.223-0.5 0.5-0.5zm8.6738-5.998a6 6 0 0 0-6.1738 5.998 6 6 0 1 0 12 0 6 6 0 0 0-5.8262-5.998zm-0.02734 1a5 5 0 0 1 4.8535 4.998 5 5 0 1 1-10 0 5 5 0 0 1 5.1465-4.998z" color="#000000" fill="currentColor" style="paint-order:normal"/>
 <path d="m10.146 1.002a5 5 0 0 0-5.1465 4.998h4.5c0.277 0 0.5 0.223 0.5 0.5v4.4961a5 5 0 0 0 5-4.9961 5 5 0 0 0-4.8535-4.998zm-0.14648 9.9941a5 5 0 0 1-5-4.9961h-3.5c-0.277 0-0.5 0.223-0.5 0.5v8c0 0.277 0.223 0.5 0.5 0.5h8c0.277 0 0.5-0.223 0.5-0.5z" color="#000000" fill="currentColor" opacity=".25" style="paint-order:normal"/>
</svg>

<svg xmlns="http://www.w3.org/2000/svg" width="16" height="16"><path fill="currentColor" d="M1 5c-.554 0-1 .446-1 1v9c0 .554.446 1 1 1h9c.554 0 1-.446 1-1V6c0-.554-.446-1-1-1zm.5 1h8c.277 0 .5.223.5.5v8c0 .277-.223.5-.5.5h-8a.5.5 0 0 1-.5-.5v-8c0-.277.223-.5.5-.5M10.174.002A6 6 0 0 0 4 6a6 6 0 1 0 12 0A6 6 0 0 0 10.174.002m-.028 1A5 5 0 0 1 15 6 5 5 0 1 1 5 6a5 5 0 0 1 5.146-4.998" color="#000" style="paint-order:normal"/><path fill="currentColor" d="M10.146 1.002A5 5 0 0 0 5 6h4.5c.277 0 .5.223.5.5v4.496A5 5 0 0 0 15 6a5 5 0 0 0-4.854-4.998M10 10.996A5 5 0 0 1 5 6H1.5c-.277 0-.5.223-.5.5v8c0 .277.223.5.5.5h8c.277 0 .5-.223.5-.5z" color="#000" opacity=".25" style="paint-order:normal"/></svg>
